packages/icons/raw/imported/FilesFolderOpen.svg

<svg width="32" height="32" viewBox="0 0 32 32" fill="none" xmlns="http://www.w3.org/2000/svg">
<path d="M22.5 10.1538V9.65384V10.1538ZM16.7308 10.1538L16.302 10.4111L16.4477 10.6538H16.7308V10.1538ZM14.5385 6.5L14.9672 6.24275L14.8216 6L14.5385 6V6.5ZM9.5 6.5V6V6.5ZM6.5 9.5H7H6.5ZM25.5 13.1538H25H25.5ZM25 19.2885C25 19.5646 25.2239 19.7885 25.5 19.7885C25.7761 19.7885 26 19.5646 26 19.2885H25ZM6.5 20H7H6.5ZM6.5 22.5H6H6.5ZM22.5 25.5V25V25.5ZM9.50001 25.5L9.50001 26L9.50001 25.5ZM25.5 20H25H25.5ZM25.5 22.5H26H25.5ZM21.5 16V15.5V16ZM10.5 16V16.5V16ZM22.5 9.65384H16.7308V10.6538H22.5V9.65384ZM17.1595 9.89659L14.9672 6.24275L14.1097 6.75725L16.302 10.4111L17.1595 9.89659ZM14.5385 6L9.5 6V7L14.5385 7V6ZM6 9.5L6 19.2885H7L7 9.5H6ZM25 13.1538V19.2885H26V13.1538H25ZM22.5 10.6538C23.8807 10.6538 25 11.7731 25 13.1538H26C26 11.2208 24.433 9.65384 22.5 9.65384V10.6538ZM9.5 6C7.567 6 6 7.567 6 9.5H7C7 8.11929 8.11929 7 9.5 7V6ZM6 20L6 22.5H7L7 20H6ZM22.5 25L9.5 25L9.50001 26L22.5 26V25ZM25 20V22.5H26V20H25ZM21.5 15.5L10.5 15.5V16.5L21.5 16.5V15.5ZM26 20C26 17.5147 23.9853 15.5 21.5 15.5V16.5C23.433 16.5 25 18.067 25 20H26ZM7 20C7 18.067 8.56701 16.5 10.5 16.5V15.5C8.01472 15.5 6 17.5147 6 20H7ZM6 22.5C6 24.433 7.56701 26 9.50001 26L9.5 25C8.11929 25 7 23.8807 7 22.5H6ZM22.5 26C24.433 26 26 24.433 26 22.5H25C25 23.8807 23.8807 25 22.5 25V26Z" fill="black"/>
</svg>

<svg width="32" height="32" fill="none" xmlns="http://www.w3.org/2000/svg"><path d="M22.5 10.154v-.5.5Zm-5.77 0-.428.257.146.243h.283v-.5ZM14.54 6.5l.428-.257L14.822 6h-.283v.5ZM9.5 6.5V6v.5Zm-3 3H7h-.5Zm19 3.654H25h.5Zm-.5 6.134a.5.5 0 0 0 1 0h-1ZM6.5 20H7h-.5Zm0 2.5H6h.5Zm16 3V25v.5Zm-13 0v.5-.5Zm16-5.5H25h.5Zm0 2.5h.5-.5Zm-4-6.5v-.5.5Zm-11 0v.5-.5Zm12-6.346h-5.77v1h5.77v-1Zm-5.34.243-2.193-3.654-.857.514 2.192 3.654.858-.514ZM14.539 6H9.5v1h5.039V6ZM6 9.5v9.788h1V9.5H6Zm19 3.654v6.134h1v-6.134h-1Zm-2.5-2.5a2.5 2.5 0 0 1 2.5 2.5h1a3.5 3.5 0 0 0-3.5-3.5v1ZM9.5 6A3.5 3.5 0 0 0 6 9.5h1A2.5 2.5 0 0 1 9.5 7V6ZM6 20v2.5h1V20H6Zm16.5 5h-13v1h13v-1Zm2.5-5v2.5h1V20h-1Zm-3.5-4.5h-11v1h11v-1ZM26 20a4.5 4.5 0 0 0-4.5-4.5v1A3.5 3.5 0 0 1 25 20h1ZM7 20a3.5 3.5 0 0 1 3.5-3.5v-1A4.5 4.5 0 0 0 6 20h1Zm-1 2.5A3.5 3.5 0 0 0 9.5 26v-1A2.5 2.5 0 0 1 7 22.5H6ZM22.5 26a3.5 3.5 0 0 0 3.5-3.5h-1a2.5 2.5 0 0 1-2.5 2.5v1Z" fill="#000"/></svg>
